lib/brands/icons/blocs.svg

<svg xmlns="http://www.w3.org/2000/svg" fill="none" aria-hidden="true" viewBox="0 0 48 48"><g id="blocs-Icon"><g id="Group"><path id="Vector" fill="white" d="M23.9998 6C23.1457 6 22.2915 6.22092 21.5261 6.66287L10.2223 13.1891C8.69149 14.0729 7.74854 15.7062 7.74854 17.4736V30.5263C7.74854 32.2939 8.69149 33.9271 10.2223 34.8108L21.5261 41.3372C22.2915 41.779 23.1457 41.9999 23.9998 41.9999C24.854 41.9999 25.708 41.779 26.4735 41.3372L37.7774 34.8108C39.3082 33.9271 40.2511 32.2939 40.2511 30.5263V17.4736C40.2511 15.7062 39.3082 14.0729 37.7774 13.1891L26.4735 6.66287C25.708 6.22092 24.854 6 23.9998 6Z"/><path id="Vector_2" fill="#298AEC" d="M37.7774 13.1895L26.4735 6.66308C24.9427 5.7793 23.0569 5.7793 21.5261 6.66308L10.2223 13.1895C8.69149 14.0731 7.74854 15.7064 7.74854 17.4738V30.5265C7.74854 32.2941 8.69149 33.9273 10.2223 34.811L21.5261 41.3374C23.0569 42.2212 24.9427 42.2212 26.4735 41.3374L37.7774 34.811C39.3082 33.9273 40.2511 32.2941 40.2511 30.5265V17.4738C40.2511 15.7064 39.3082 14.0731 37.7774 13.1895ZM38.6963 29.9022C38.6963 31.5006 37.8437 32.9775 36.4594 33.7767L26.2368 39.6787C24.8526 40.478 23.1471 40.478 21.7628 39.6787L11.5403 33.7767C10.156 32.9775 9.30332 31.5006 9.30332 29.9022V18.0982C9.30332 16.4998 10.156 15.0228 11.5403 14.2237L21.7628 8.32173C23.1471 7.5225 24.8526 7.5225 26.2368 8.32173L36.4594 14.2237C37.8437 15.0228 38.6963 16.4998 38.6963 18.0982V29.9022Z"/><path id="Vector_3" fill="#44546C" d="M17.0332 19.9998H31.4342V21.2623H17.0332V19.9998Z"/><path id="Vector_4" fill="#44546C" d="M17.0332 24.2452H31.4342V25.5077H17.0332V24.2452Z"/><path id="Vector_5" fill="#44546C" d="M17.0332 28.4767H31.4342V29.7393H17.0332V28.4767Z"/></g></g></svg>

<svg xmlns="http://www.w3.org/2000/svg" fill="none" aria-hidden="true" viewBox="0 0 48 48"><path fill="#fff" d="M24 6c-.854 0-1.708.22-2.474.663l-11.304 6.526a4.947 4.947 0 0 0-2.473 4.285v13.052c0 1.768.943 3.401 2.473 4.285l11.304 6.526a4.945 4.945 0 0 0 4.948 0l11.304-6.526a4.947 4.947 0 0 0 2.473-4.285V17.474a4.949 4.949 0 0 0-2.473-4.285L26.474 6.663A4.944 4.944 0 0 0 24 6Z"/><path fill="#298AEC" d="M37.778 13.19 26.474 6.663a4.947 4.947 0 0 0-4.948 0L10.222 13.19a4.947 4.947 0 0 0-2.473 4.284v13.052c0 1.768.943 3.401 2.473 4.285l11.304 6.526a4.947 4.947 0 0 0 4.948 0l11.304-6.526a4.947 4.947 0 0 0 2.473-4.285V17.474c0-1.768-.943-3.4-2.473-4.284Zm.919 16.712a4.474 4.474 0 0 1-2.238 3.875l-10.222 5.902a4.475 4.475 0 0 1-4.474 0L11.54 33.777a4.474 4.474 0 0 1-2.237-3.875V18.098c0-1.598.853-3.075 2.237-3.874l10.223-5.902a4.47 4.47 0 0 1 4.474 0l10.223 5.902a4.474 4.474 0 0 1 2.236 3.874v11.804Z"/><path fill="#44546C" d="M17.033 20h14.401v1.262h-14.4V20Zm0 4.245h14.401v1.263h-14.4v-1.263Zm0 4.232h14.401v1.262h-14.4v-1.262Z"/></svg>
